modules/feathericon/icons/github.svg

<?xml version="1.0" encoding="UTF-8"?>
<svg width="14px" height="14px" viewBox="0 0 14 14" version="1.1" xmlns="http://www.w3.org/2000/svg" xmlns:xlink="http://www.w3.org/1999/xlink">
    <!-- Generator: sketchtool 48.1 (47250) - http://www.bohemiancoding.com/sketch -->
    <title>github</title>
    <desc>Created with sketchtool.</desc>
    <defs></defs>
    <g id="brand" stroke="none" stroke-width="1" fill="none" fill-rule="evenodd">
        <g id="github" fill="#000000">
            <path d="M7,0 C3.1325,0 0,3.1325 0,7 C0,10.0975 2.00375,12.71375 4.78625,13.64125 C5.13625,13.7025 5.2675,13.4925 5.2675,13.30875 C5.2675,13.1425 5.25875,12.59125 5.25875,12.005 C3.5,12.32875 3.045,11.57625 2.905,11.1825 C2.82625,10.98125 2.485,10.36 2.1875,10.19375 C1.9425,10.0625 1.5925,9.73875 2.17875,9.73 C2.73,9.72125 3.12375,10.2375 3.255,10.4475 C3.885,11.50625 4.89125,11.20875 5.29375,11.025 C5.355,10.57 5.53875,10.26375 5.74,10.08875 C4.1825,9.91375 2.555,9.31 2.555,6.6325 C2.555,5.87125 2.82625,5.24125 3.2725,4.75125 C3.2025,4.57625 2.9575,3.85875 3.3425,2.89625 C3.3425,2.89625 3.92875,2.7125 5.2675,3.61375 C5.8275,3.45625 6.4225,3.3775 7.0175,3.3775 C7.6125,3.3775 8.2075,3.45625 8.7675,3.61375 C10.10625,2.70375 10.6925,2.89625 10.6925,2.89625 C11.0775,3.85875 10.8325,4.57625 10.7625,4.75125 C11.20875,5.24125 11.48,5.8625 11.48,6.6325 C11.48,9.31875 9.84375,9.91375 8.28625,10.08875 C8.54,10.3075 8.75875,10.7275 8.75875,11.38375 C8.75875,12.32 8.75,13.0725 8.75,13.30875 C8.75,13.4925 8.88125,13.71125 9.23125,13.64125 C11.99625,12.71375 14,10.08875 14,7 C14,3.1325 10.8675,0 7,0 L7,0 Z" id="Shape"></path>
        </g>
    </g>
</svg>

<svg width="14" height="14" xmlns="http://www.w3.org/2000/svg"><path d="M7 0C3.132 0 0 3.132 0 7a6.995 6.995 0 0 0 4.786 6.641c.35.062.482-.149.482-.332 0-.166-.01-.718-.01-1.304-1.758.324-2.213-.429-2.353-.823-.079-.2-.42-.822-.717-.988-.246-.132-.596-.455-.01-.464.552-.009.946.508 1.077.717.63 1.06 1.636.762 2.039.578.061-.455.245-.761.446-.936-1.558-.175-3.185-.779-3.185-3.457 0-.76.271-1.39.717-1.88-.07-.176-.314-.893.07-1.856 0 0 .587-.183 1.925.718a6.495 6.495 0 0 1 1.75-.236c.595 0 1.19.078 1.75.236 1.34-.91 1.926-.718 1.926-.718.385.963.14 1.68.07 1.855.446.49.717 1.111.717 1.881 0 2.687-1.636 3.282-3.194 3.457.254.218.473.638.473 1.295 0 .936-.009 1.688-.009 1.925 0 .184.131.402.481.332A7.011 7.011 0 0 0 14 7c0-3.868-3.133-7-7-7z" fill="#000" fill-rule="evenodd"/></svg>
